**kern	**kern	**dynam
*part1	*part1	*part1
*staff2	*staff1	*
*I"Piano	*	*
*clefF4	*clefG2	*
*k[b-e-]	*k[b-e-]	*
=1	=1	=1
(4C' 4E-	(4c' 4g	.
4FF' 4F	4c' 4a-X	.
8r	8r	.
8GG') 8F	8Bn') 8g	.
=	=	=
*^	*	*
8C 8E-	8ryy	8c 8g	.
8r	8ryy	8r	.
*	*	*^	*
(4G	2E-	(4g [4cc	2c	<
*	*	*	*^	*
4G-X)	.	8.ccL]	.	4g-X\	.
.	.	16b-Jk)	.	.	.
*	*	*	*v	*v	*
=	=	=	=	=
(8B-L	4E- 4F	(8b-L	4c 4f	[ mf
8AJ)	.	8aJ)	.	.
*v	*v	*	*	*
*	*v	*v	*
4r	4r	.
(8E-L 8F	(8cL 8f 8a	< p
8DJ 8F	8B-J 8f 8b-	.
=	=	=
4.C 4.F	4.e- 4.a 4.ee-	.
8BB-L 8F	8dL 8b- 8dd	[ mf
8E- 8G	8c 8g 8cc	.
16r	16r	.
16EnJk)	16cJk) 16g 16b-	.
=	=	=
*	*^	*
2F	(4b-	2c 2f	.
.	4a)	.	.
*	*v	*v	*
8E-XL 8F	8AL 8c 8f	pp
8DJ 8F	8B-J 8d 8f	.
=	=	=
4.C 4.F	4.A 4.e- 4.f	.
8BB-L 8F	8B-L 8d 8f	.
8.E- 8.F	8.A 8.c 8.f	.
16DJk 16F	16GJk 16Bn 16f	.
=	=	=
*^	*^	*
*	*	*	*^	*
(4D	2.F	(2.f	[2.G	4Bn/	.
4C	.	.	.	4c/	.
[4BBn	.	.	.	[4d/	.
*v	*v	*	*	*	*
=	=	=	=	=
4BB])	2.e-)	2G_	4d\_	.
(4C	.	.	8d\L]	.
.	.	.	[8c\J	.
[4AA	.	8GL]	4c/_	.
.	.	[8FJ	.	.
*	*v	*v	*v	*
=	=	=
*-	*-	*-
!!!system-decoration: {(s1,s2)}
